X:1
T:Title
L:1/8
M:4/4
I:linebreak $
K:D
V:1 treble nm="Voice"
V:1
 FG |"D" A2 fA dAFA |"G" B2 gA fAed |"A" cdef gece |"D" defd A2 FG |"D" A2 fA dAFA | %6
"G" B2 gA fAed |"A" cdef gece |1"D" dfec d2 :|2"D" dfec defg |:"D" abaf defd |"A" efge"G" B2 ed | %12
"A" cdef gece |"D" defd A2 fg |"D" abaf defd |"A" efge"G" B2 ed |"A" cdef gece |1"D" dfec defg :|2 %18
"D" dfec d2 |] %19
